X:1
T: The Big Five Oh.
C:Bruce Shawyer
R:Reel
Q:232
K:A
M:4/4
L:1/16
|:"A"c2B2A2c2 "D"d2e2f2d2|"A"c2B2A2c2 "E"B2G2E4|"A"c2B2A2c2 "D"d2e2f2d2|"E7"e2d2c2B2 "A"A4A4|
"A"e2d2c2e2 "D"f2e2d2f2|"A"e2d2c2e2 "E"d2B2G4|"A"e2d2c2e2 "D"f2e2d2f2|"E7"e2d2c2B2 "A"A4A4|
"A"a2e2c2e2 "D"a2f2d2f2|"A"e2c2A2c2 "E"B2d2e2g2|"A"a2c'2a2e2 "D"f2a2f2d2|"E7"e2d2c2B2 "A"A4A4|
"A"c'2a2e2c'2 "E"b2g2e2b2|"F#m"a2c'2a2f2 "Bm"d2f2b4|"A"c'2a2e2c'2 "D"a2f2d4|"E7"e2d2c2B2 "A"A8:|
